X:1
T:O Christmas Tree
M:3/4
L:1/4
K:Cmaj
G,|C/2>C/2CD|E/2>E/2E>E|D/2E/2FB,|DCG,|
w:O Christ-mas tree, O Christ-mas tree, How are thy leaves so ver-dant! O
B,/2>C/2CD|E/2>E/2E>E|D/2E/2FB,|DCz/2G/|
w:Christ-mas tree, O Christ-mas tree, How are thy leaves so ver-dant! Not
G/2E/2A>G|G/2F/F>F|F/D/G>F|F/2E/2EG,|
w:on-ly in the sum-mer-time, But ev'n in win-ter is thy prime. O
C/2>C/2CD|E/2>E/2E>E|D/2E/2FB,|DCz|]
w:Christ-mas tree, O Christ-mas tree, How are thy leaves so ver-dant!
